X:1
T:Batchelder's Reel
L:1/8
M:C|
I:linebreak $
K:F
V:1 treble
V:1
"F" f2 af"C" efge | "F" f2 c2 c2 =Bc | "Bb" dcBA "Gm" BAGF | "C" EFGA Bcde |$
"F" f2 af"C" efge | "F" f2 c2 (3cdc =Bc | "Bb" dcBA"Gm" BAGF | "C" EFGE F2 "F" c2 ::$
"F" A2 cA cAcA |"Bb" B2 dB dBdB | "F" A2 cA cAcA | "Gm" BAGF "C" EFGB |$
 "F" A2 cA cAcA | "Bb" B2 dB dBdB | "F" Acfa bgeg | "C" f2 a2 "F" f2 c2 :|
